X: 13766
T: Forlorn Queen, The
R: waltz
M: 3/4
K: Gmajor
g2 (dega)|b4 z2|a2 ga g/a/b|(a/g/e) d2d2|g2 (dega)|
b4 z2|a2 ga g/a/b|a2g2||de|=f4 (f2|e4) (de)|g2e2 dc|
B4 Bd|e2 (eg) ed|B4 (e/d/).B|(A2 GA) G/A/B|
A2G2 de|=f4 f2|e4 d/e/f|g2 (fe)(dc)|
B2B2 (B/c/d|e2) e<g(ed|B4) (e/d/B)|A2 GA B2|A2 G2||

